X:1
T:Title
%%score { ( 1 3 ) | ( 2 4 ) }
L:1/8
M:4/4
K:Eb
V:1 treble nm="Grand Piano"
V:3 treble 
V:2 bass 
V:4 bass 
V:1
 z4[Q:1/4=108] [EGB]4 | c2 z2 [Ge]2 z2 | z4 F2 z2 | c2 B2 A2 F2 | [B,EG]6 z2 | c2 z2 [Ge]2 z2 | %6
 G2 z2 [Ec]2 z2 | z4 A2 z2 | [G,E]6 E2 | F2 E2 B2 A2 | [EGe]4 _d2 z2 | [FA_d]2 z2 [_DG]4 | %12
 [CEAc]6 A2 | G2 F2 c2 A2 | G2 z2 [DFB]2 [FB]2 | [EB]2 [CEc]2 [EG]2 [A,DF]2 |[M:6/4] .[G,E]6 z6 | %17
[M:4/4] [CEA]8 | [B,EG]8 |] %19
V:2
 z4 E,4 | z2[K:treble] B2[K:bass] z2 G2 | A,,4 z2[K:treble] c2 | [B,,F,A,]4 [F,B,]2 B,2 | %4
 E,4 E,,2[K:treble] B2 | z2 B2[K:bass] z2 G2 | z2 F2 z2 E2 | z2[K:treble] B2[K:bass] z2 F2 | %8
 E,4 E,,2 z2 | [E,A,C]4 [E,CE]4 | [E,,E,]4 z2[K:treble] c2 | z2 F2 z2 _d2 | A,,6 A,,2 | %13
 A,,4 [A,CE]4 | z2[K:treble] F2 z2 D2 | G,2 A,2[K:bass] B,2 B,,2 |[M:6/4] .E,6 z6 |[M:4/4] A,,8 | %18
 E,8 |] %19
V:3
 x8 | [EG]4 E4 | [CEG]4 [CE]4 | D4 D4 | x8 | [EG]4 E4 | [CE]4 C4 | [F,D]4 [A,D]4 | x8 | x8 | %10
 z4 [EG]4 | x8 | x8 | [CE]4 z4 | [CE]4 z4 | x8 |[M:6/4] x12 |[M:4/4] x8 | x8 |] %19
V:4
 x8 | E,,4[K:treble][K:bass] G,,4 | z4 A,,4[K:treble] | z4 B,,4 | x6[K:treble] x2 | %5
 E,,4[K:bass] G,,4 | A,,4 A,,4 | B,,4[K:treble][K:bass] B,,4 | x8 | x8 | z4 [E,,E,]4[K:treble] | %11
 E,4 E,4 | x8 | x8 | A,,4[K:treble] A,4 | x4[K:bass] x4 |[M:6/4] x12 |[M:4/4] x8 | x8 |] %19

